X:8018
T:West of the River Shannon
O:england
M:3/4
L:1/8
Q:175
S:Jake from the John Boyle O'Reilly Club, East Springfield, MA
R:Waltz
K:D
A2d3c|d2e2f2|~e2d2B2|A2F2G2|A2d3A|d2f2a2|a2f2d2|e2d2B2|
A2d3A|d2e2f2|~e2d2B2|A3A de|f2e2d2|Ad3f2|e4fe|d4||
f2|g4a2|b2g2b2|a2f2e2|d6|Ad4A|d2f2a2|a2f2d2|e4f2|
g2g2a2|b2g2b2|a2f2e2|d3A de|f2e2d2|Ad3f2|e6|d4||
fg|a4b2|a2f2d2|B2d2B2|A2F2G2|A2d3A|d2f2a2|a2f2d2|e4fg|
a4b2|a2f2d2|B2d2B2|A3A de|f2e2d2|Ad3f2|e6|d6||


